source/images/logo/swiftui.svg

<svg fill="none" height="72" viewBox="0 0 73 72" width="73" xmlns="http://www.w3.org/2000/svg" xmlns:xlink="http://www.w3.org/1999/xlink"><radialGradient id="a" cx="0" cy="0" gradientTransform="matrix(108.796 0 0 65.7563 36.3581 -3.17678)" gradientUnits="userSpaceOnUse" r="1"><stop offset=".202" stop-color="#27f5f1"/><stop offset=".29" stop-color="#25e2ee"/><stop offset=".468" stop-color="#20b1e7"/><stop offset=".717" stop-color="#1963db"/><stop offset=".857" stop-color="#1434d4"/><stop offset="1" stop-color="#0015b5"/></radialGradient><path d="m56.9741 72h-40.996c-8.56203 0-15.502026-6.94-15.502026-15.502v-21.56l30.000026-34.938h26.496c8.564 0 15.504 6.94 15.504 15.502v40.994c0 8.564-6.94 15.504-15.502 15.504z" fill="url(#a)"/><path d="m30.4761 0-30.000026 34.938c8.649996 11.502 29.626026 19.56 43.376026 6.936 8-10 3.376-26.376-2.626-31.75-3.014-2.7-6.622-6.584-10.75-10.124z" fill="#1a5cf9"/><path d="m30.4761 0-30.000026 31.366v3.572c10.158026 7.906 26.010026 11.02 37.126026.812 8-10 3.376-26.376-2.626-31.75-1.274-1.14-2.804-2.53-4.5-4z" fill="#21aaf5"/><path d="m.476074 24.954v6.412c9.371996 3.95 20.630026 3.932 29.126026-3.866 6.448-8.06 4.94-20.256.874-27.5h-6.3z" fill="#25e0f2"/><path d="m15.9781 0c-8.56203 0-15.502026 6.94-15.502026 15.502v9.452c6.951996.764 14.110026-.918 19.958026-6.288 4.238-5.298 4.92-12.376 3.742-18.666z" fill="#18ffff"/><path d="m13.6921 17.7393s13.666 20.654 25.156 27.64c-4.348 1.398-13.788 7.11-30.248-2.984 4.192 5.746 11.614 17.27 29.782 16.184 6.366-.31 10.248-2.33 13.82-3.726s6.988-1.242 9.938 4.038c.622-4.814.776-9.318-4.192-14.442 0 0 4.912-18.726-16.002-33.502 4.348 8.696 6.866 13.6 4.822 25.582-4.658-3.106-21.862-16.96-25.744-21.464 2.796 4.97 10.838 15.872 13.632 18.668-4.968-3.416-20.964-15.994-20.964-15.994z" fill="#000"/></svg>

<svg width="73" height="72" viewBox="0 0 73 72" fill="none" xmlns="http://www.w3.org/2000/svg">
<path d="M56.9741 72H15.9781C7.41607 72 0.476074 65.06 0.476074 56.498V34.938L30.4761 0H56.9721C65.5361 0 72.4761 6.94 72.4761 15.502V56.496C72.4761 65.06 65.5361 72 56.9741 72Z" fill="url(#paint0_radial)"/>
<path d="M30.4761 0L0.476074 34.938C9.12607 46.44 30.1021 54.498 43.8521 41.874C51.8521 31.874 47.2281 15.498 41.2261 10.124C38.2121 7.424 34.6041 3.54 30.4761 0Z" fill="#1A5CF9"/>
<path d="M30.4761 0L0.476074 31.366V34.938C10.6341 42.844 26.4861 45.958 37.6021 35.75C45.6021 25.75 40.9781 9.374 34.9761 4C33.7021 2.86 32.1721 1.47 30.4761 0Z" fill="#21AAF5"/>
<path d="M0.476074 24.954V31.366C9.84807 35.316 21.1061 35.298 29.6021 27.5C36.0501 19.44 34.5421 7.244 30.4761 0H24.1761L0.476074 24.954Z" fill="#25E0F2"/>
<path d="M15.9781 0C7.41607 0 0.476074 6.94 0.476074 15.502V24.954C7.42807 25.718 14.5861 24.036 20.4341 18.666C24.6721 13.368 25.3541 6.29 24.1761 0H15.9781Z" fill="#18FFFF"/>
<path d="M13.6921 17.7393C13.6921 17.7393 27.3581 38.3933 38.8481 45.3793C34.5001 46.7773 25.0601 52.4893 8.6001 42.3953C12.7921 48.1413 20.2141 59.6653 38.3821 58.5793C44.7481 58.2693 48.6301 56.2493 52.2021 54.8533C55.7741 53.4573 59.1901 53.6113 62.1401 58.8913C62.7621 54.0773 62.9161 49.5733 57.9481 44.4493C57.9481 44.4493 62.8601 25.7233 41.9461 10.9473C46.2941 19.6433 48.8121 24.5473 46.7681 36.5293C42.1101 33.4233 24.9061 19.5693 21.0241 15.0653C23.8201 20.0353 31.8621 30.9373 34.6561 33.7333C29.6881 30.3173 13.6921 17.7393 13.6921 17.7393Z" fill="black"/>
<defs>
<radialGradient id="paint0_radial" cx="0" cy="0" r="1" gradientUnits="userSpaceOnUse" gradientTransform="translate(36.3581 -3.17678) scale(108.796 65.7563)">
<stop offset="0.202" stop-color="#27F5F1"/>
<stop offset="0.29" stop-color="#25E2EE"/>
<stop offset="0.468" stop-color="#20B1E7"/>
<stop offset="0.717" stop-color="#1963DB"/>
<stop offset="0.857" stop-color="#1434D4"/>
<stop offset="1" stop-color="#0015B5"/>
</radialGradient>
</defs>
</svg>
